X:1
T:The Bonnie Blue Flag
M:6/8
L:1/4
K:E
 z2 z/2 B,/2| G G/2 G G/2| A/2 A z A/2| B B/2 G E/2| F3/2- F z/2| e e/2 d e/2|\
 c B/2 G E/2| G F/2 E D/2| E3/2- E B,/2| G G/2 G G/2| A/2 A z A/2|\
 B B/2 G E/2| F3/2- F B/2| e3/2 d e/2| c/2c/2B/2 G E/2| G F/2 E D/2|\
 E3/2- E B/2| e3/2- e B/2| e3/2- e B/2| c c/2 c c/2| B3/2- B B/2| e3/2 B B/2|\
 d/2d/2c/2 B A/2| G A/2 G F/2| E3/2- E z/2|
